X:1
T:Antrim, 87.87 D
T:Antrim, 87.87 D
T:Philip Paul Bliss, 1871
T:Public Domain Courtesy of the Cyber Hymnal™
C:Philip Paul Bliss, 1871
Z:Public Domain
Z:Courtesy of the Cyber Hymnal™
%%score ( 1 2 ) ( 3 4 )
L:1/8
Q:1/4=102
M:6/8
K:F
V:1 treble 
V:2 treble 
V:3 bass 
V:4 bass 
V:1
 [FA]2 [FA] (A^G)[FA] | [Fc]2 [FB] [FA]2 [EG] | [DF]2 [DF] (FE)[DF] | [EA]2 [EG] [EG]3 | %4
 [FA]2 [FA] (A^G)[FA] | [Fc]2 [FB] [FA]2 [EG] | [DF]2 [DF] (FE)[DF] | [EA]2 [EG] F3 | %8
 [EG]2 [EG] ([EG][^D^F])[EG] | [Ac]2 [GB] [GB]2 [FA] | [FA]2 [GA] [FA]2 [FA] | [Fd]2 [FG] [EG]3 | %12
 [FA]2 [FA] (A^G)[FA] | [Fc]2 [FB] [FA]2 [EG] | [DF]2 [DF] (FE)[DF] | [EA]2 [EG] F3 |] %16
V:2
 x3 F2 x | x6 | x3 D2 x | x6 | x3 F2 x | x6 | x3 D2 x | x3 F3 | x6 | x6 | x6 | x6 | x3 F2 x | x6 | %14
 x3 D2 x | x3 F3 |] %16
V:3
 [F,C]2 [F,C] (C=B,)[F,C] | [F,D]2 [F,D] [F,C]2 [C,B,] | [D,A,]2 [D,A,] [D,A,]2 [D,A,] | %3
 [A,,C]2 [C,C] [C,C]3 | [F,C]2 [F,C] (C=B,)[F,C] | [F,D]2 [F,D] [F,C]2 [C,B,] | %6
 [D,A,]2 [D,A,] [D,A,]2 [D,A,] | [C,C]2 [C,B,] [F,A,]3 | [C,C]2 [C,C] [C,C]2 [C,C] | %9
 [C,C]2 [C,C] [F,C]2 [F,C] | [F,C]2 [E,^C] [D,D]2 [D,D] | [B,,D]2 [=B,,D] [C,C]3 | %12
 [F,C]2 [F,C] (C=B,)[F,C] | [F,D]2 [F,D] [F,C]2 [C,B,] | [D,A,]2 [D,A,] [D,A,]2 [D,A,] | %15
 [C,C]2 [C,B,] [F,A,]3 |] %16
V:4
 x3 F,2 x | x6 | x6 | x6 | x3 F,2 x | x6 | x6 | x6 | x6 | x6 | x6 | x6 | x3 F,2 x | x6 | x6 | x6 |] %16

